X:320
T:Innis Dhombs' Ca'l Cadal
D:Wick S.C.D., The Sound of the North (1970)
O:Scotland
Z:Nigel Gatherer
L:1/8
M:4/4
K:A
f<aa>f e>de<f|a2 a>f e>d B2|f<aa>f e>de<f|B<dd>e d>B A2:|
A<df>d e>df>d|A<df>d e>d B2|A<df>d e>df>d|A<dd>e d>B A2:|
<end>
<start>
